Public/images/icon_swiftfiddle.com.svg

<?xml version="1.0" encoding="UTF-8"?>
<svg xmlns="http://www.w3.org/2000/svg" xmlns:xlink="http://www.w3.org/1999/xlink" width="54" height="54" viewBox="0 0 54 54" version="1.1">
<g id="surface1">
<rect x="0" y="0" width="54" height="54" style="fill:rgb(5.098039%,43.137255%,99.215686%);fill-opacity:1;stroke:none;"/>
<path style=" stroke:none;fill-rule:nonzero;fill:rgb(100%,100%,100%);fill-opacity:1;" d="M 35.761719 30.957031 C 35.796875 30.835938 35.832031 30.714844 35.863281 30.59375 C 37.203125 25.261719 33.9375 18.957031 28.410156 15.640625 C 30.832031 18.921875 31.902344 22.898438 30.953125 26.375 C 30.867188 26.6875 30.765625 26.984375 30.652344 27.273438 C 30.53125 27.195312 30.375 27.101562 30.167969 26.988281 C 30.167969 26.988281 24.671875 23.59375 18.714844 17.589844 C 18.558594 17.433594 21.890625 22.355469 25.671875 26.351562 C 23.890625 25.351562 18.925781 21.738281 15.78125 18.859375 C 16.164062 19.503906 16.625 20.125 17.128906 20.722656 C 19.757812 24.050781 23.179688 28.160156 27.285156 31.316406 C 24.402344 33.078125 20.328125 33.21875 16.273438 31.316406 C 15.269531 30.847656 14.324219 30.28125 13.453125 29.636719 C 15.171875 32.382812 17.8125 34.75 21.03125 36.132812 C 24.871094 37.785156 28.6875 37.671875 31.527344 36.160156 L 31.527344 36.164062 C 31.535156 36.160156 31.546875 36.152344 31.558594 36.144531 C 31.683594 36.078125 31.8125 36.007812 31.933594 35.933594 C 33.308594 35.226562 35.988281 34.53125 37.425781 37.335938 C 37.78125 38.023438 38.535156 34.371094 35.765625 30.960938 C 35.761719 30.960938 35.761719 30.960938 35.761719 30.957031 Z M 35.761719 30.957031 "/>
<path style="fill:none;stroke-width:20;stroke-linecap:round;stroke-linejoin:miter;stroke:rgb(100%,100%,100%);stroke-opacity:1;stroke-miterlimit:4;" d="M 112.209989 243.777778 L 41.839619 493.185185 " transform="matrix(0.0527344,0,0,0.0527344,36.438145,1.371094)"/>
<path style="fill:none;stroke-width:20;stroke-linecap:round;stroke-linejoin:miter;stroke:rgb(100%,100%,100%);stroke-opacity:1;stroke-miterlimit:4;" d="M 290.024804 422 L 41.802582 493.185185 " transform="matrix(-0.0527344,0,0,-0.0527344,53.895839,49.675781)"/>
<path style="fill:none;stroke-width:20;stroke-linecap:round;stroke-linejoin:miter;stroke:rgb(100%,100%,100%);stroke-opacity:1;stroke-miterlimit:4;" d="M 113.024804 244 L 290.209989 422.222222 " transform="matrix(0.0527344,0,0,0.0527344,36.438145,1.371094)"/>
<path style="fill:none;stroke-width:20;stroke-linecap:round;stroke-linejoin:miter;stroke:rgb(100%,100%,100%);stroke-opacity:1;stroke-miterlimit:4;" d="M 83.024804 368.962963 L 165.247026 458.222222 " transform="matrix(0.0527344,0,0,0.0527344,36.438145,1.371094)"/>
<path style="fill-rule:evenodd;fill:rgb(100%,100%,100%);fill-opacity:1;stroke-width:1;stroke-linecap:butt;stroke-linejoin:miter;stroke:rgb(100%,100%,100%);stroke-opacity:1;stroke-miterlimit:4;" d="M 81.358642 399.282074 L 143.462393 502.77234 L 19.251596 502.81224 Z M 81.358642 399.282074 " transform="matrix(-0.0359648,-0.0385675,0.0385675,-0.0359648,26.268928,44.493974)"/>
<path style="fill:none;stroke-width:20;stroke-linecap:round;stroke-linejoin:miter;stroke:rgb(100%,100%,100%);stroke-opacity:1;stroke-miterlimit:4;" d="M 355.024804 0 L 113.024804 242 " transform="matrix(0.0527344,0,0,0.0527344,36.438145,1.371094)"/>
<path style="fill:none;stroke-width:20;stroke-linecap:round;stroke-linejoin:miter;stroke:rgb(100%,100%,100%);stroke-opacity:1;stroke-miterlimit:4;" d="M 417.024804 58 L 175.024804 300 " transform="matrix(0.0527344,0,0,0.0527344,36.438145,1.371094)"/>
<path style="fill:none;stroke-width:20;stroke-linecap:round;stroke-linejoin:miter;stroke:rgb(100%,100%,100%);stroke-opacity:1;stroke-miterlimit:4;" d="M 475.024804 120 L 233.024804 362 " transform="matrix(0.0527344,0,0,0.0527344,36.438145,1.371094)"/>
<path style="fill:none;stroke-width:20;stroke-linecap:round;stroke-linejoin:miter;stroke:rgb(100%,100%,100%);stroke-opacity:1;stroke-miterlimit:4;" d="M 534.061841 179.037037 L 291.987767 420.962963 " transform="matrix(0.0527344,0,0,0.0527344,36.438145,1.371094)"/>
</g>
</svg>

<svg xmlns="http://www.w3.org/2000/svg" width="54" height="54"><path d="M0 0h54v54H0z" style="fill:#0d6efd;fill-opacity:1;stroke:none"/><path d="M35.762 30.957c.035-.121.07-.242.101-.363 1.34-5.332-1.925-11.637-7.453-14.953 2.422 3.28 3.492 7.257 2.543 10.734-.086.313-.187.61-.3.898a7.8 7.8 0 0 0-.485-.285s-5.496-3.394-11.453-9.398c-.156-.156 3.176 4.765 6.957 8.762-1.781-1-6.746-4.614-9.89-7.493.382.645.843 1.266 1.347 1.864 2.629 3.328 6.05 7.437 10.156 10.593-2.883 1.762-6.957 1.903-11.012 0a16.443 16.443 0 0 1-2.82-1.68 16.883 16.883 0 0 0 7.578 6.497c3.84 1.652 7.657 1.539 10.496.027v.004a.36.36 0 0 0 .032-.02c.125-.066.253-.136.375-.21 1.375-.707 4.054-1.403 5.492 1.402.355.687 1.11-2.965-1.66-6.375-.004 0-.004 0-.004-.004Zm0 0" style="stroke:none;fill-rule:nonzero;fill:#fff;fill-opacity:1"/><path d="M112.21 243.778 41.84 493.185" style="fill:none;stroke-width:20;stroke-linecap:round;stroke-linejoin:miter;stroke:#fff;stroke-opacity:1;stroke-miterlimit:4" transform="matrix(.05273 0 0 .05273 36.438 1.371)"/><path d="M290.025 422 41.803 493.185" style="fill:none;stroke-width:20;stroke-linecap:round;stroke-linejoin:miter;stroke:#fff;stroke-opacity:1;stroke-miterlimit:4" transform="matrix(-.05273 0 0 -.05273 53.896 49.676)"/><path d="M113.025 244 290.21 422.222M83.025 368.963l82.222 89.26" style="fill:none;stroke-width:20;stroke-linecap:round;stroke-linejoin:miter;stroke:#fff;stroke-opacity:1;stroke-miterlimit:4" transform="matrix(.05273 0 0 .05273 36.438 1.371)"/><path d="m81.359 399.282 62.103 103.49-124.21.04Zm0 0" style="fill-rule:evenodd;fill:#fff;fill-opacity:1;stroke-width:1;stroke-linecap:butt;stroke-linejoin:miter;stroke:#fff;stroke-opacity:1;stroke-miterlimit:4" transform="scale(-.05273) rotate(47 721.163 -994.686)"/><path d="m355.025 0-242 242M417.025 58l-242 242M475.025 120l-242 242M534.062 179.037 291.988 420.963" style="fill:none;stroke-width:20;stroke-linecap:round;stroke-linejoin:miter;stroke:#fff;stroke-opacity:1;stroke-miterlimit:4" transform="matrix(.05273 0 0 .05273 36.438 1.371)"/></svg>
